docs/icons/bar.svg

<?xml version="1.0" encoding="UTF-8"?><svg width="200px" height="200px" shape-rendering="auto" version="1.1" viewBox="0 0 100 100" xml:space="preserve" xmlns="http://www.w3.org/2000/svg"><g style="transform-origin:50% 50%;transform:scale(0.8)"><g style="animation:1s linear -1s infinite normal forwards running bounce-4a226a58-420c-4a1d-a9fe-6078f1e12117;transform-origin:50px 50px;transform:matrix(1, 0, 0, 1, 0, 0)"><g style="transform-origin:50px 50px;transform:matrix(1, 0, 0, 1, 0, 0)"><path d="m30 72.889c-8.09 0-14.648-4.099-14.648-9.156v19.611c0 5.057 6.558 9.156 14.648 9.156s14.648-4.099 14.648-9.156v-19.611c0 5.057-6.558 9.156-14.648 9.156z" fill="#f8b26a"/></g><g style="transform-origin:50px 50px;transform:matrix(1, 0, 0, 1, 0, 0)"><ellipse cx="30" cy="63.733" rx="14.648" ry="9.156" fill="#f47e60"/></g></g><g style="animation:1s linear -0.945s infinite normal forwards running bounce-4a226a58-420c-4a1d-a9fe-6078f1e12117;transform-origin:50px 50px;transform:matrix(1, 0, 0, 1, 0, 0)"><g style="transform-origin:50px 50px;transform:matrix(1, 0, 0, 1, 0, 0)"><path d="m70 51.889c-8.09 0-14.648-4.099-14.648-9.156v40.611c0 5.057 6.558 9.156 14.648 9.156s14.648-4.099 14.648-9.156v-40.611c0 5.057-6.558 9.156-14.648 9.156z" fill="#a0c8d7"/></g><g style="transform-origin:50px 50px;transform:matrix(1, 0, 0, 1, 0, 0)"><ellipse cx="70" cy="42.733" rx="14.648" ry="9.156" fill="#77a4bd"/></g></g><g style="animation:1s linear -0.89s infinite normal forwards running bounce-4a226a58-420c-4a1d-a9fe-6078f1e12117;transform-origin:50px 50px;transform:matrix(1, 0, 0, 1, 0, 0)"><g style="transform-origin:50px 50px;transform:matrix(1, 0, 0, 1, 0, 0)"><path d="m30 25.812c-8.09 0-14.648-4.099-14.648-9.156v38.077c0 5.057 6.558 9.156 14.648 9.156s14.648-4.099 14.648-9.156v-38.077c0 5.057-6.558 9.156-14.648 9.156z" fill="rgba(255, 255, 255, 0.804)"/></g><g style="transform-origin:50px 50px;transform:matrix(1, 0, 0, 1, 0, 0)"><ellipse cx="30" cy="16.656" rx="14.648" ry="9.156" fill="#ccc"/></g></g><g style="animation:1s linear -0.835s infinite normal forwards running bounce-4a226a58-420c-4a1d-a9fe-6078f1e12117;transform-origin:50px 50px;transform:matrix(1, 0, 0, 1, 0, 0)"><g style="transform-origin:50px 50px;transform:matrix(1, 0, 0, 1, 0, 0)"><path d="m70 25.812c-8.09 0-14.648-4.099-14.648-9.156v17.077c0 5.057 6.558 9.156 14.648 9.156s14.648-4.099 14.648-9.156v-17.077c0 5.057-6.558 9.156-14.648 9.156z" fill="rgba(255, 255, 255, 0.804)"/></g><g style="transform-origin:50px 50px;transform:matrix(1, 0, 0, 1, 0, 0)"><ellipse cx="70" cy="16.656" rx="14.648" ry="9.156" fill="#ccc"/></g></g><metadata xmlns:d="https://loading.io/stock/">
<d:name>bar</d:name>
<d:tags>bar,column,cylinder,percent,progress</d:tags>
<d:license>cc-by</d:license>
<d:slug>p3ejy0</d:slug>
</metadata></g><style id="a" data-anikit="">@keyframes bounce-4a226a58-420c-4a1d-a9fe-6078f1e12117
{
  0% {
    animation-timing-function: cubic-bezier(0.1361,0.2514,0.2175,0.8786);
    transform: translate(0,0px) scaleY(1);
  }
  37% {
    animation-timing-function: cubic-bezier(0.7674,0.1844,0.8382,0.7157);
    transform: translate(0,-11.988px) scaleY(1);
  }
  72% {
    animation-timing-function: cubic-bezier(0.2491,0.4828,0.4773,0.9595);
    transform: translate(0,0px) scaleY(1);
  }
  87% {
    animation-timing-function: cubic-bezier(0.5084,0.1576,0.7399,0.5564);
    transform: translate(0,4.257px) scaleY(0.871);
  }
  100% {
    transform: translate(0,0px) scaleY(1);
  }
}</style><style data-anikit="">@keyframes bounce-4a226a58-420c-4a1d-a9fe-6078f1e12117
{
  0% {
    animation-timing-function: cubic-bezier(0.1361,0.2514,0.2175,0.8786);
    transform: translate(0,0px) scaleY(1);
  }
  37% {
    animation-timing-function: cubic-bezier(0.7674,0.1844,0.8382,0.7157);
    transform: translate(0,-11.988px) scaleY(1);
  }
  72% {
    animation-timing-function: cubic-bezier(0.2491,0.4828,0.4773,0.9595);
    transform: translate(0,0px) scaleY(1);
  }
  87% {
    animation-timing-function: cubic-bezier(0.5084,0.1576,0.7399,0.5564);
    transform: translate(0,4.257px) scaleY(0.871);
  }
  100% {
    transform: translate(0,0px) scaleY(1);
  }
}</style></svg>

<?xml version="1.0" encoding="utf-8"?>
<svg version="1.1" id="圖層_1" xmlns="http://www.w3.org/2000/svg" xmlns:xlink="http://www.w3.org/1999/xlink" x="0px" y="0px" viewBox="0 0 100 100" style="shape-rendering: auto;" xml:space="preserve" width="200px" height="200px"><g style="transform-origin: 50% 50%; transform: scale(0.8);"><g><g style="transform-origin: 50px 50px; transform: matrix(1, 0, 0, 1, 0, 0); animation: 1s linear -1s infinite normal forwards running bounce-4a226a58-420c-4a1d-a9fe-6078f1e12117;"><g><g style="transform-origin: 50px 50px; transform: matrix(1, 0, 0, 1, 0, 0);"><path style="fill:#f8b26a" d="M30,72.889c-8.09,0-14.648-4.099-14.648-9.156v0v19.611c0,5.057,6.558,9.156,14.648,9.156 s14.648-4.099,14.648-9.156V63.733v0C44.648,68.79,38.09,72.889,30,72.889z"></path></g><g style="transform-origin: 50px 50px; transform: matrix(1, 0, 0, 1, 0, 0);"><ellipse style="fill:#f47e60" cx="30" cy="63.733" rx="14.648" ry="9.156"></ellipse></g></g></g><g style="transform-origin: 50px 50px; transform: matrix(1, 0, 0, 1, 0, 0); animation: 1s linear -0.945s infinite normal forwards running bounce-4a226a58-420c-4a1d-a9fe-6078f1e12117;"><g><g style="transform-origin: 50px 50px; transform: matrix(1, 0, 0, 1, 0, 0);"><path style="fill:#a0c8d7" d="M70,51.889c-8.09,0-14.648-4.099-14.648-9.156v0v40.611c0,5.057,6.558,9.156,14.648,9.156 s14.648-4.099,14.648-9.156V42.733v0C84.648,47.79,78.09,51.889,70,51.889z"></path></g><g style="transform-origin: 50px 50px; transform: matrix(1, 0, 0, 1, 0, 0);"><ellipse style="fill:#77a4bd" cx="70" cy="42.733" rx="14.648" ry="9.156"></ellipse></g></g></g><g style="transform-origin: 50px 50px; transform: matrix(1, 0, 0, 1, 0, 0); animation: 1s linear -0.89s infinite normal forwards running bounce-4a226a58-420c-4a1d-a9fe-6078f1e12117;"><g><g style="transform-origin: 50px 50px; transform: matrix(1, 0, 0, 1, 0, 0);"><path style="fill: rgba(255, 255, 255, 0.804);" d="M30,25.812c-8.09,0-14.648-4.099-14.648-9.156v38.077c0,5.057,6.558,9.156,14.648,9.156 s14.648-4.099,14.648-9.156V16.656C44.648,21.713,38.09,25.812,30,25.812z"></path></g><g style="transform-origin: 50px 50px; transform: matrix(1, 0, 0, 1, 0, 0);"><ellipse style="fill:#ccc" cx="30" cy="16.656" rx="14.648" ry="9.156"></ellipse></g></g></g><g style="transform-origin: 50px 50px; transform: matrix(1, 0, 0, 1, 0, 0); animation: 1s linear -0.835s infinite normal forwards running bounce-4a226a58-420c-4a1d-a9fe-6078f1e12117;"><g><g style="transform-origin: 50px 50px; transform: matrix(1, 0, 0, 1, 0, 0);"><path style="fill: rgba(255, 255, 255, 0.804);" d="M70,25.812c-8.09,0-14.648-4.099-14.648-9.156v17.077c0,5.057,6.558,9.156,14.648,9.156 s14.648-4.099,14.648-9.156V16.656C84.648,21.713,78.09,25.812,70,25.812z"></path></g><g style="transform-origin: 50px 50px; transform: matrix(1, 0, 0, 1, 0, 0);"><ellipse style="fill:#ccc" cx="70" cy="16.656" rx="14.648" ry="9.156"></ellipse></g></g></g><metadata xmlns:d="https://loading.io/stock/">
<d:name>bar</d:name>
<d:tags>bar,column,cylinder,percent,progress</d:tags>
<d:license>cc-by</d:license>
<d:slug>p3ejy0</d:slug>
</metadata></g></g><style id="bounce-4a226a58-420c-4a1d-a9fe-6078f1e12117" data-anikit="">@keyframes bounce-4a226a58-420c-4a1d-a9fe-6078f1e12117
{
  0% {
    animation-timing-function: cubic-bezier(0.1361,0.2514,0.2175,0.8786);
    transform: translate(0,0px) scaleY(1);
  }
  37% {
    animation-timing-function: cubic-bezier(0.7674,0.1844,0.8382,0.7157);
    transform: translate(0,-11.988px) scaleY(1);
  }
  72% {
    animation-timing-function: cubic-bezier(0.2491,0.4828,0.4773,0.9595);
    transform: translate(0,0px) scaleY(1);
  }
  87% {
    animation-timing-function: cubic-bezier(0.5084,0.1576,0.7399,0.5564);
    transform: translate(0,4.257px) scaleY(0.871);
  }
  100% {
    transform: translate(0,0px) scaleY(1);
  }
}</style><style id="bounce-4a226a58-420c-4a1d-a9fe-6078f1e12117" data-anikit="">@keyframes bounce-4a226a58-420c-4a1d-a9fe-6078f1e12117
{
  0% {
    animation-timing-function: cubic-bezier(0.1361,0.2514,0.2175,0.8786);
    transform: translate(0,0px) scaleY(1);
  }
  37% {
    animation-timing-function: cubic-bezier(0.7674,0.1844,0.8382,0.7157);
    transform: translate(0,-11.988px) scaleY(1);
  }
  72% {
    animation-timing-function: cubic-bezier(0.2491,0.4828,0.4773,0.9595);
    transform: translate(0,0px) scaleY(1);
  }
  87% {
    animation-timing-function: cubic-bezier(0.5084,0.1576,0.7399,0.5564);
    transform: translate(0,4.257px) scaleY(0.871);
  }
  100% {
    transform: translate(0,0px) scaleY(1);
  }
}</style><!-- generated by https://loading.io/ --></svg>
